X:105
T:John Byrne's
T:Father Fielding's Favorite
R:jig
S:James Byrne and Roisin McRory
M:6/8
K:G
GFG BcA|BGF GBc|dBG cAF|GDC B,CD|
GFG BcA|BGG fed|cAG FGA|1 BGF G2D:|2 BGF GBd||
gfg afd|cBc dBG|g2b afd|cBc def|
gdg fdf|ece gfe|ded BcA|1 BGF GBd:|BFG G2D||
